flaticon/technology/game-console-15.svg

<svg xmlns="http://www.w3.org/2000/svg" width="32" height="32" viewBox="0 0 24 24">
    <path d="M 0 0 L 0 14.800781 C 0 14.855469 0.0117188 14.914062 0.0351562 14.964844 L 1.78125 18.804688 C 0.796875 18.824219 0 19.628906 0 20.621094 L 0 24 L 24 24 L 24 20.621094 C 24 19.628906 23.203125 18.824219 22.214844 18.804688 L 23.964844 14.882812 C 23.988281 14.832031 24 14.777344 24 14.722656 L 24 0 Z M 18.398438 16.800781 C 17.957031 16.800781 17.601562 16.441406 17.601562 16 C 17.601562 15.558594 17.957031 15.199219 18.398438 15.199219 C 18.839844 15.199219 19.199219 15.558594 19.199219 16 C 19.199219 16.441406 18.839844 16.800781 18.398438 16.800781 Z M 18.800781 17.542969 C 19.488281 17.363281 20 16.742188 20 16 C 20 15.117188 19.28125 14.398438 18.398438 14.398438 C 17.519531 14.398438 16.800781 15.117188 16.800781 16 C 16.800781 16.742188 17.3125 17.363281 18 17.542969 L 18 18.800781 L 16.800781 18.800781 L 16.800781 18 C 16.800781 17.777344 16.621094 17.601562 16.398438 17.601562 L 14.398438 17.601562 C 14.179688 17.601562 14 17.777344 14 18 L 14 18.800781 L 10 18.800781 L 10 18 C 10 17.777344 9.820312 17.601562 9.601562 17.601562 L 7.601562 17.601562 C 7.378906 17.601562 7.199219 17.777344 7.199219 18 L 7.199219 18.800781 L 6 18.800781 L 6 17.542969 C 6.6875 17.363281 7.199219 16.742188 7.199219 16 C 7.199219 15.117188 6.480469 14.398438 5.601562 14.398438 C 4.71875 14.398438 4 15.117188 4 16 C 4 16.742188 4.511719 17.363281 5.199219 17.542969 L 5.199219 18.800781 L 2.851562 18.800781 L 3.996094 9.246094 C 4 9.230469 4 9.214844 4 9.199219 C 4 8.941406 4.082031 8.703125 4.222656 8.507812 C 4.269531 8.4375 4.328125 8.375 4.390625 8.316406 C 4.410156 8.300781 4.425781 8.289062 4.445312 8.273438 C 4.496094 8.230469 4.550781 8.195312 4.609375 8.160156 C 4.632812 8.148438 4.652344 8.136719 4.675781 8.125 C 4.734375 8.09375 4.796875 8.074219 4.863281 8.054688 C 4.886719 8.046875 4.90625 8.039062 4.929688 8.03125 C 5.015625 8.011719 5.105469 8 5.199219 8 L 18.800781 8 C 18.894531 8 18.984375 8.011719 19.070312 8.03125 C 19.09375 8.039062 19.113281 8.046875 19.136719 8.054688 C 19.199219 8.074219 19.265625 8.09375 19.324219 8.125 C 19.347656 8.136719 19.367188 8.148438 19.390625 8.160156 C 19.449219 8.195312 19.503906 8.230469 19.554688 8.273438 C 19.574219 8.289062 19.589844 8.304688 19.609375 8.316406 C 19.671875 8.375 19.730469 8.4375 19.777344 8.507812 C 19.917969 8.703125 20 8.941406 20 9.199219 C 20 9.214844 20 9.230469 20.003906 9.246094 L 21.148438 18.800781 L 18.800781 18.800781 Z M 16 18.800781 L 14.800781 18.800781 L 14.800781 18.398438 L 16 18.398438 Z M 9.199219 18.800781 L 8 18.800781 L 8 18.398438 L 9.199219 18.398438 Z M 5.601562 16.800781 C 5.160156 16.800781 4.800781 16.441406 4.800781 16 C 4.800781 15.558594 5.160156 15.199219 5.601562 15.199219 C 6.042969 15.199219 6.398438 15.558594 6.398438 16 C 6.398438 16.441406 6.042969 16.800781 5.601562 16.800781 Z M 20.148438 7.722656 C 20.113281 7.691406 20.070312 7.667969 20.035156 7.636719 C 19.984375 7.597656 19.933594 7.554688 19.875 7.519531 C 19.828125 7.484375 19.773438 7.460938 19.71875 7.433594 C 19.660156 7.402344 19.605469 7.371094 19.542969 7.347656 C 19.480469 7.320312 19.414062 7.304688 19.351562 7.285156 C 19.292969 7.269531 19.242188 7.25 19.183594 7.238281 C 19.058594 7.214844 18.929688 7.199219 18.800781 7.199219 L 5.199219 7.199219 C 5.070312 7.199219 4.941406 7.214844 4.816406 7.238281 C 4.757812 7.25 4.707031 7.269531 4.648438 7.285156 C 4.585938 7.304688 4.519531 7.320312 4.457031 7.347656 C 4.394531 7.371094 4.339844 7.402344 4.28125 7.433594 C 4.226562 7.460938 4.171875 7.484375 4.121094 7.519531 C 4.066406 7.554688 4.015625 7.597656 3.964844 7.636719 C 3.929688 7.667969 3.886719 7.691406 3.851562 7.722656 L 1.457031 5.601562 L 22.542969 5.601562 Z M 0.800781 0.800781 L 23.199219 0.800781 L 23.199219 4.800781 L 0.800781 4.800781 Z M 0.800781 6.089844 L 3.382812 8.375 C 3.269531 8.617188 3.203125 8.886719 3.199219 9.171875 L 2.171875 17.734375 L 0.800781 14.714844 Z M 23.199219 20.621094 L 23.199219 23.199219 L 0.800781 23.199219 L 0.800781 20.621094 C 0.800781 20.058594 1.257812 19.601562 1.820312 19.601562 L 22.179688 19.601562 C 22.742188 19.601562 23.199219 20.058594 23.199219 20.621094 Z M 21.824219 17.714844 L 20.800781 9.171875 C 20.796875 8.886719 20.730469 8.617188 20.617188 8.375 L 23.199219 6.089844 L 23.199219 14.636719 Z M 21.824219 17.714844"/>
    <path d="M21.199219 20L22 20 22 22.800781 21.199219 22.800781zM19 20C18.226562 20 17.601562 20.628906 17.601562 21.398438 17.601562 22.171875 18.226562 22.800781 19 22.800781 19.773438 22.800781 20.398438 22.171875 20.398438 21.398438 20.398438 20.628906 19.773438 20 19 20zM19 22C18.667969 22 18.398438 21.730469 18.398438 21.398438 18.398438 21.070312 18.667969 20.800781 19 20.800781 19.332031 20.800781 19.601562 21.070312 19.601562 21.398438 19.601562 21.730469 19.332031 22 19 22zM2 20L2.800781 20 2.800781 22.800781 2 22.800781zM5 20C4.226562 20 3.601562 20.628906 3.601562 21.398438 3.601562 22.171875 4.226562 22.800781 5 22.800781 5.773438 22.800781 6.398438 22.171875 6.398438 21.398438 6.398438 20.628906 5.773438 20 5 20zM5 22C4.667969 22 4.398438 21.730469 4.398438 21.398438 4.398438 21.070312 4.667969 20.800781 5 20.800781 5.332031 20.800781 5.601562 21.070312 5.601562 21.398438 5.601562 21.730469 5.332031 22 5 22zM4 2.398438L3.601562 2.398438 3.601562 1.601562C3.601562 1.378906 3.421875 1.199219 3.199219 1.199219 2.980469 1.199219 2.800781 1.378906 2.800781 1.601562L2.800781 2.398438 2.398438 2.398438 2.398438 2C2.398438 1.777344 2.222656 1.601562 2 1.601562 1.777344 1.601562 1.601562 1.777344 1.601562 2L1.601562 3.601562C1.601562 3.820312 1.777344 4 2 4 2.222656 4 2.398438 3.820312 2.398438 3.601562L2.398438 3.199219 2.800781 3.199219 2.800781 4C2.800781 4.222656 2.980469 4.398438 3.199219 4.398438 3.421875 4.398438 3.601562 4.222656 3.601562 4L3.601562 3.199219 4 3.199219C4.222656 3.199219 4.398438 3.019531 4.398438 2.800781 4.398438 2.578125 4.222656 2.398438 4 2.398438zM5.714844 2.515625C5.644531 2.589844 5.601562 2.691406 5.601562 2.800781 5.601562 2.902344 5.644531 3.007812 5.714844 3.085938 5.792969 3.15625 5.894531 3.199219 6 3.199219 6.105469 3.199219 6.207031 3.15625 6.285156 3.085938 6.355469 3.007812 6.398438 2.902344 6.398438 2.800781 6.398438 2.695312 6.355469 2.589844 6.285156 2.515625 6.132812 2.367188 5.867188 2.367188 5.714844 2.515625zM8 2.800781C8 3.019531 7.820312 3.199219 7.601562 3.199219 7.378906 3.199219 7.199219 3.019531 7.199219 2.800781 7.199219 2.578125 7.378906 2.398438 7.601562 2.398438 7.820312 2.398438 8 2.578125 8 2.800781zM11.199219 2.800781C11.199219 3.019531 11.019531 3.199219 10.800781 3.199219 10.578125 3.199219 10.398438 3.019531 10.398438 2.800781 10.398438 2.578125 10.578125 2.398438 10.800781 2.398438 11.019531 2.398438 11.199219 2.578125 11.199219 2.800781zM9.601562 2.800781C9.601562 3.019531 9.421875 3.199219 9.199219 3.199219 8.980469 3.199219 8.800781 3.019531 8.800781 2.800781 8.800781 2.578125 8.980469 2.398438 9.199219 2.398438 9.421875 2.398438 9.601562 2.578125 9.601562 2.800781zM12.117188 2.515625C12.042969 2.589844 12 2.691406 12 2.800781 12 2.902344 12.042969 3.007812 12.117188 3.085938 12.191406 3.15625 12.296875 3.199219 12.398438 3.199219 12.503906 3.199219 12.609375 3.15625 12.683594 3.085938 12.757812 3.007812 12.800781 2.902344 12.800781 2.800781 12.800781 2.695312 12.757812 2.589844 12.683594 2.515625 12.535156 2.367188 12.269531 2.367188 12.117188 2.515625zM21.199219 1.199219C20.316406 1.199219 19.601562 1.917969 19.601562 2.800781 19.601562 3.683594 20.316406 4.398438 21.199219 4.398438 22.082031 4.398438 22.800781 3.683594 22.800781 2.800781 22.800781 1.917969 22.082031 1.199219 21.199219 1.199219zM21.199219 3.601562C20.757812 3.601562 20.398438 3.242188 20.398438 2.800781 20.398438 2.359375 20.757812 2 21.199219 2 21.640625 2 22 2.359375 22 2.800781 22 3.242188 21.640625 3.601562 21.199219 3.601562zM5.199219 11.199219C5.300781 11.199219 5.40625 11.160156 5.484375 11.082031L7.082031 9.484375C7.238281 9.328125 7.238281 9.074219 7.082031 8.917969 6.925781 8.761719 6.671875 8.761719 6.515625 8.917969L4.917969 10.515625C4.761719 10.671875 4.761719 10.925781 4.917969 11.082031 4.996094 11.160156 5.097656 11.199219 5.199219 11.199219zM5.71875 11.71875L4.917969 12.515625C4.761719 12.671875 4.761719 12.925781 4.917969 13.082031 4.996094 13.160156 5.097656 13.199219 5.199219 13.199219 5.300781 13.199219 5.40625 13.160156 5.484375 13.082031L6.28125 12.28125C6.4375 12.125 6.4375 11.875 6.28125 11.71875 6.125 11.5625 5.875 11.5625 5.71875 11.71875zM6.515625 10.914062C6.445312 10.992188 6.398438 11.089844 6.398438 11.199219 6.398438 11.304688 6.445312 11.40625 6.515625 11.484375 6.589844 11.554688 6.691406 11.601562 6.800781 11.601562 6.90625 11.601562 7.007812 11.554688 7.085938 11.484375 7.15625 11.40625 7.199219 11.304688 7.199219 11.199219 7.199219 11.089844 7.15625 10.992188 7.085938 10.914062 6.933594 10.769531 6.664062 10.769531 6.515625 10.914062zM8.515625 8.917969L7.316406 10.117188C7.160156 10.273438 7.160156 10.527344 7.316406 10.683594 7.394531 10.761719 7.496094 10.800781 7.601562 10.800781 7.703125 10.800781 7.804688 10.761719 7.882812 10.683594L9.082031 9.484375C9.238281 9.328125 9.238281 9.074219 9.082031 8.917969 8.925781 8.761719 8.671875 8.761719 8.515625 8.917969zM8.515625 8.917969"/>
</svg>

<svg xmlns="http://www.w3.org/2000/svg" width="32" height="32" viewBox="0 0 24 24">
    <path d="M0 0v14.8a.4.4 0 0 0 .035.165l1.746 3.84A1.818 1.818 0 0 0 0 20.62V24h24v-3.379a1.82 1.82 0 0 0-1.785-1.816l1.75-3.922a.382.382 0 0 0 .035-.16V0zm18.398 16.8a.799.799 0 0 1-.796-.8.799.799 0 1 1 1.597 0c0 .441-.36.8-.8.8zm.403.743A1.6 1.6 0 0 0 20 16c0-.883-.719-1.602-1.602-1.602-.878 0-1.597.72-1.597 1.602A1.6 1.6 0 0 0 18 17.543v1.258h-1.2V18a.398.398 0 0 0-.402-.398h-2A.398.398 0 0 0 14 18v.8h-4V18a.398.398 0 0 0-.398-.398h-2a.398.398 0 0 0-.403.398v.8H6v-1.257A1.6 1.6 0 0 0 7.2 16c0-.883-.72-1.602-1.598-1.602C4.719 14.398 4 15.118 4 16a1.6 1.6 0 0 0 1.2 1.543v1.258H2.851l1.144-9.555C4 9.23 4 9.215 4 9.2c0-.258.082-.496.223-.691.047-.07.105-.133.168-.192l.054-.043c.051-.043.106-.078.164-.113l.067-.035a.977.977 0 0 1 .187-.07l.067-.024c.086-.02.175-.031.27-.031h13.6c.095 0 .184.012.27.031l.067.024c.062.02.129.039.187.07l.067.035c.058.035.113.07.164.113.02.016.035.032.054.043.063.059.121.121.168.192.141.195.223.433.223.691 0 .016 0 .031.004.047l1.144 9.555h-2.347zM16 18.801h-1.2v-.403H16zm-6.8 0H8v-.403h1.2zm-3.598-2a.802.802 0 0 1 0-1.602c.441 0 .796.36.796.801 0 .441-.355.8-.796.8zm14.546-9.078c-.035-.032-.078-.055-.113-.086-.05-.04-.101-.082-.16-.117-.047-.036-.102-.06-.156-.086-.059-.032-.114-.063-.176-.086-.063-.028-.129-.043-.191-.063-.059-.015-.11-.035-.168-.047A2.086 2.086 0 0 0 18.8 7.2H5.199c-.129 0-.258.016-.383.04-.058.011-.109.03-.168.046-.062.02-.128.035-.191.063-.062.023-.117.054-.176.086-.054.027-.11.05-.16.086-.055.035-.105.078-.156.117-.035.031-.078.054-.113.086L1.457 5.602h21.086zM.801.8h22.398v4H.801zm0 5.289l2.582 2.285a1.94 1.94 0 0 0-.184.797l-1.027 8.562L.8 14.714zM23.199 20.62V23.2H.801v-2.578c0-.562.457-1.02 1.02-1.02H22.18c.562 0 1.02.458 1.02 1.02zm-1.375-2.906l-1.023-8.543a1.94 1.94 0 0 0-.184-.797L23.2 6.09v8.547zm0 0"/>
    <path d="M21.2 20h.8v2.8h-.8zm0 0M19 20a1.4 1.4 0 1 0 .002 2.8A1.4 1.4 0 0 0 19 20zm0 2a.602.602 0 0 1-.602-.602.601.601 0 0 1 1.204 0c0 .332-.27.602-.602.602zm0 0M2 20h.8v2.8H2zm0 0M5 20a1.4 1.4 0 1 0 .002 2.8A1.4 1.4 0 0 0 5 20zm0 2a.602.602 0 0 1-.602-.602.601.601 0 0 1 1.204 0c0 .332-.27.602-.602.602zm0 0M4 2.398h-.398v-.796a.401.401 0 0 0-.8 0l-.001.796h-.403V2A.395.395 0 0 0 2 1.602.395.395 0 0 0 1.602 2v1.602a.398.398 0 1 0 .796 0v-.403h.403V4c0 .223.18.398.398.398A.398.398 0 0 0 3.602 4v-.8H4c.223 0 .398-.18.398-.4A.398.398 0 0 0 4 2.399zm0 0M5.715 2.516a.415.415 0 0 0 0 .57.43.43 0 0 0 .285.113.43.43 0 0 0 .285-.113.438.438 0 0 0 .113-.285.423.423 0 0 0-.113-.285.42.42 0 0 0-.57 0zm0 0M8 2.8a.4.4 0 1 1-.8-.003.4.4 0 0 1 .8.004zm0 0M11.2 2.8a.4.4 0 1 1-.801-.003.4.4 0 0 1 .8.004zm0 0M9.602 2.8a.401.401 0 1 1-.802-.004.401.401 0 0 1 .802.005zm0 0M12.117 2.516A.402.402 0 0 0 12 2.8c0 .101.043.207.117.285a.42.42 0 0 0 .281.113c.106 0 .211-.043.286-.113A.423.423 0 0 0 12.8 2.8a.409.409 0 0 0-.117-.285.416.416 0 0 0-.567 0zm0 0M21.2 1.2a1.6 1.6 0 1 0 1.6 1.6c0-.882-.718-1.6-1.6-1.6zm0 2.402A.802.802 0 0 1 21.2 2a.802.802 0 0 1 0 1.602zm0 0M5.2 11.2c.1 0 .206-.04.284-.118l1.598-1.598a.4.4 0 0 0-.566-.566l-1.598 1.598a.4.4 0 0 0 .281.683zm0 0M5.719 11.719l-.801.797a.4.4 0 0 0 .566.566l.797-.8a.396.396 0 0 0 0-.563.396.396 0 0 0-.562 0zm0 0M6.516 10.914a.426.426 0 0 0-.118.285c0 .106.047.207.118.285.074.07.175.118.285.118a.434.434 0 0 0 .285-.118.43.43 0 0 0 .113-.285.423.423 0 0 0-.113-.285.43.43 0 0 0-.57 0zm0 0M8.516 8.918l-1.2 1.2a.4.4 0 0 0 .567.566l1.199-1.2a.4.4 0 0 0-.566-.566zm0 0"/>
</svg>
